modules/themify-icons/icons/file.svg

<?xml version="1.0" encoding="utf-8"?>
<!-- Generated by IcoMoon.io -->
<!DOCTYPE svg PUBLIC "-//W3C//DTD SVG 1.1//EN" "http://www.w3.org/Graphics/SVG/1.1/DTD/svg11.dtd">
<svg version="1.1" xmlns="http://www.w3.org/2000/svg" xmlns:xlink="http://www.w3.org/1999/xlink" width="17" height="17" viewBox="0 0 17 17">
<g>
</g>
	<path d="M9.667 0h-7.667v17h13v-11.692l-5.333-5.308zM10 1.742l3.273 3.258h-3.273v-3.258zM3 16v-15h6v5h5v10h-11z" fill="#000000" />
</svg>

<svg xmlns="http://www.w3.org/2000/svg" width="17" height="17" viewBox="0 0 17 17"><path d="M9.667 0H2v17h13V5.308L9.667 0zM10 1.742L13.273 5H10V1.742zM3 16V1h6v5h5v10H3z"/></svg>
